icons/lines/like.svg

<svg xmlns="http://www.w3.org/2000/svg" width="24" height="24" viewBox="0 0 24 24" fill="none" stroke="currentColor" stroke-width="2" stroke-linecap="round" stroke-linejoin="round" >
  <path d="M18 18.86H17.24C16.44 18.86 15.68 19.17 15.12 19.73L13.41 21.42C12.63 22.19 11.36 22.19 10.58 21.42L8.87 19.73C8.31 19.17 7.54 18.86 6.75 18.86H6C4.34 18.86 3 17.53 3 15.89V4.97998C3 3.33998 4.34 2.01001 6 2.01001H18C19.66 2.01001 21 3.33998 21 4.97998V15.89C21 17.52 19.66 18.86 18 18.86Z" stroke-miterlimit="10"/>
  <path d="M12.28 14.96C12.13 15.01 11.88 15.01 11.72 14.96C10.42 14.51 7.5 12.66 7.5 9.51001C7.5 8.12001 8.62 7 10 7C10.82 7 11.54 7.39 12 8C12.46 7.39 13.18 7 14 7C15.38 7 16.5 8.12001 16.5 9.51001C16.49 12.66 13.58 14.51 12.28 14.96Z"/>
  </svg>

<svg xmlns="http://www.w3.org/2000/svg" width="24" height="24" viewBox="0 0 24 24" fill="none" stroke="currentColor" stroke-width="2" stroke-linecap="round" stroke-linejoin="round">
  <path d="M12.28 14.96a1 1 0 0 1-.56 0c-1.3-.45-4.22-2.3-4.22-5.45A2.503 2.503 0 0 1 12 8a2.49 2.49 0 0 1 4.5 1.51c-.01 3.15-2.92 5-4.22 5.45" />
  <path d="M17.24 18.86a3 3 0 0 0-2.12.87l-1.71 1.69a2 2 0 0 1-2.83 0l-1.71-1.69a3 3 0 0 0-2.12-.87H6a3 3 0 0 1-3-2.97V4.98a3 3 0 0 1 3-2.97h12a3 3 0 0 1 3 2.97v10.91a3 3 0 0 1-3 2.97z" />
</svg>
